X: 1
T: Maggie On The Shore
M: 4/4
L: 1/8
R: reel
K: Gmaj
~G3A B2BA|~B3G AGED|~G3A B2BA|GAAG A2GD|
~G3B dBBA|B2BG AGED|~G3A B2BA|GAAG A2GD||
~g3d edgd|edgd ~b3d|g2gd ~e3f|gedb baba|
~g3d edgd|edgd ~b3d|g2gd ed (3Bcd|egaf gedB||
